X: 385
%
U:~=!turn!
T: 'Smairg a chu\`iradh spiocaire
T: The Miser
C:
O:Scotland
B:Keith Norman MacDonald : "The Skye collection of the best reels & strathspeys extant" : 1887
Z:Ralph Palmer
R:Reel
M:C
L:1/8
K:Bb Lydian
c | AF F/F/F CFAc | AF F/F/F B2 Bd | AF F/F/F CFAc | _eE E/E/E B2 B :| c | Ac c/c/c fc c/c/c | Ac c/c/c f3 a |
Ac c/c/c fc c/c/c | _eE E/E/E B2 Bc | Ac c/c/c fc c/c/c | Ac c/c/c f2 fb | af f/f/f cA A/A/A | BG _E/E/E B2 B |]


